X:746
T:Top and Bottom
C:Thompson, 1757
C:Play AABBB each time.
S:Colin Hume's website,  colinhume.com  - chords can also be printed below the stave.
Q:3/8=120
M:6/8
L:1/8
K:G
P:A
|: "G"g3 dBd | "G"g3 dBd | "G"gfe dcB | "Em"edc BAG |\
"G"g3 dBd | "G"g3 dBd | "Em"bag "D"fed | "A7"Ad^c "D"d3 :|
P:B
|: "D7"dcB cfa | "G"cBA Bdg | "C"edc "G/B"BAG | "D7"FGE D2d |\
"G"gaf "G/F#"gaf | "G/E"gaf "G/D"gaf | "G"gdc "D7"BcA | "G"G3 G,3 :|

